src/assets/icons/sax/IconChart.svg

<svg width="20" height="20" viewBox="0 0 24 24" fill="none" xmlns="http://www.w3.org/2000/svg">
<path d="M2 3L2 21" stroke="currentColor" stroke-width="1.5" stroke-linecap="round" stroke-linejoin="round"/>
<path d="M15.6201 5.59998V4C15.6201 3.45 15.1701 3 14.6201 3L6.00012 3C5.45012 3 5.00012 3.45 5.00012 4V5.59998C5.00012 6.14998 5.45012 6.59998 6.00012 6.59998H14.6201C15.1701 6.59998 15.6201 6.14998 15.6201 5.59998Z" stroke="currentColor" stroke-width="1.5" stroke-linecap="round" stroke-linejoin="round"/>
<path d="M18.8101 12.7999V11.2C18.8101 10.65 18.3601 10.2 17.8101 10.2H6.00006C5.45006 10.2 5.00006 10.65 5.00006 11.2V12.7999C5.00006 13.3499 5.45006 13.7999 6.00006 13.7999H17.8101C18.3601 13.7999 18.8101 13.3499 18.8101 12.7999Z" stroke="currentColor" stroke-width="1.5" stroke-linecap="round" stroke-linejoin="round"/>
<path d="M22 19.9999V18.3999C22 17.8499 21.55 17.3999 21 17.3999H6C5.45 17.3999 5 17.8499 5 18.3999V19.9999C5 20.5499 5.45 20.9999 6 20.9999H21C21.55 20.9999 22 20.5499 22 19.9999Z" stroke="currentColor" stroke-width="1.5" stroke-linecap="round" stroke-linejoin="round"/>
</svg>

<svg xmlns="http://www.w3.org/2000/svg" width="20" height="20" fill="none" viewBox="0 0 24 24">
  <path stroke="currentcolor" stroke-linecap="round" stroke-linejoin="round" stroke-width="1.5" d="M2 3v18M15.62 5.6V4a1 1 0 0 0-1-1H6a1 1 0 0 0-1 1v1.6a1 1 0 0 0 1 1h8.62a1 1 0 0 0 1-1m3.19 7.2v-1.6a1 1 0 0 0-1-1H6a1 1 0 0 0-1 1v1.6a1 1 0 0 0 1 1h11.81a1 1 0 0 0 1-1M22 20v-1.6a1 1 0 0 0-1-1H6a1 1 0 0 0-1 1V20a1 1 0 0 0 1 1h15a1 1 0 0 0 1-1"/>
</svg>
